X: 70
T:Behind the Bush in the Garden
T:Who'll be King But Charlie
T:Royal Charlie
M:6/8
L:1/8
S:O'Neill's
K:C
B|"Am"c2A AGE|c2A AGE|"C"G2A GED|GAG GED|!
"Am"c2d e2a|"C"g2e "G"d2e|"Am"c2 A "Em"BAG|"Am"A3 A2:|!
B|"Am"c2B c2d|eag e2d|c2B c2d|e3 "C"G2G|1 "Am"c2B c2d|!
eag e2d|cBA "Em"BAG|"Am"A3 A2:|2 c2d e2a|"C"g2e "G"d2e|!
"Am"c2 A "Em"BAG|A3 A2||
